public/assets/emoji-left.svg

<svg width="338" height="249" viewBox="0 0 338 249" fill="none" xmlns="http://www.w3.org/2000/svg">
<path d="M111.763 125.572C111.032 127.794 104.51 125.101 103.009 124.607C97.1662 122.683 90.1567 119.183 87.8314 112.994C86.5397 109.555 86.9152 104.072 91.5966 104.099C95.892 104.123 100.405 106.596 104.197 108.354" stroke="black" stroke-width="7" stroke-linecap="round"/>
<path d="M106.387 106.542C104.742 109.969 104.393 103.693 104.372 102.579C104.317 99.7196 105.085 96.4207 106.406 93.9092C107.194 92.4117 108.676 90.0603 110.688 90.2977C112.168 90.4724 113.452 92.4782 114.241 93.5476C116.02 95.9616 117.939 98.7834 118.888 101.655C121.465 109.45 119.422 117.041 115.752 124.067" stroke="black" stroke-width="7" stroke-linecap="round"/>
<path d="M145.236 88.3079C146.53 88.6069 144.119 87.398 143.809 87.2456C141.147 85.9374 138.811 84.5491 136.443 82.7276C131.893 79.2271 125.456 74.0062 125.369 67.6359C125.29 61.825 132.295 63.7425 135.529 65.3088C138.833 66.9085 141.57 68.9147 144.278 71.3047" stroke="black" stroke-width="7" stroke-linecap="round"/>
<path d="M143.223 69.4864C140.765 67.3177 142.687 61.7387 143.808 59.3016C144.181 58.4903 145.226 56.6393 146.272 56.4899C147.96 56.2487 149.247 57.5287 150.014 58.8499C151.27 61.014 151.618 63.7172 152.097 66.1346C152.682 69.0814 152.892 72.2231 152.886 75.2216C152.875 80.8664 150.542 85.3919 147.217 89.859" stroke="black" stroke-width="7" stroke-linecap="round"/>
<path d="M147.897 133.145C153.461 136.886 160.499 138.942 166.065 133.64C171.454 128.507 169.995 123.199 166.687 117.502" stroke="black" stroke-width="7" stroke-linecap="round"/>
<path d="M46.5975 86.6152C34.5293 103.235 26.6459 122.037 30.1507 142.913C33.3596 162.026 47.8448 178.088 64.5592 186.65C108.218 209.015 163.831 182.744 183.504 140.3C193.115 119.565 194.928 97.7474 185.088 76.5925C175.957 56.9632 154.747 42.9093 133.477 40.0597C121.607 38.4695 109.802 38.3467 98.3809 42.321C83.8866 47.3646 70.8849 56.2212 59.5494 66.458C50.6609 74.485 42.5904 84.5752 36.7116 95.0063C30.7753 105.539 27.4683 115.489 24.7806 127.119" stroke="black" stroke-width="7" stroke-linecap="round"/>
<path d="M110.44 194.101C128.257 189.93 147.477 189.665 165.726 188.859C195.541 187.543 225.277 184.906 255.017 182.473" stroke="black" stroke-width="7" stroke-linecap="round"/>
<path d="M256.246 183.055C253.366 191.576 259.271 163.993 265.819 157.828C269.278 154.572 271.361 154.25 273.195 159.109C275.183 164.378 276.967 169.895 278.112 175.417" stroke="black" stroke-width="7" stroke-linecap="round"/>
<path d="M278.673 178.126C277.137 174.51 297.791 168.878 301.277 177.084C305.574 187.2 290.699 190.702 284.188 191.109" stroke="black" stroke-width="7" stroke-linecap="round"/>
<path d="M282.796 193.94C280.845 195.073 287.442 193.397 289.562 194.17C294.643 196.025 298.843 197.384 298.463 203.501C297.843 213.5 284.917 217.419 276.964 213.511" stroke="black" stroke-width="7" stroke-linecap="round"/>
<path d="M276.996 216.353C275.833 217.238 276.612 219.813 276.517 221.058C276.327 223.547 275.244 227.84 273.341 229.665C267.226 235.531 259.95 232.243 256.207 225.796" stroke="black" stroke-width="7" stroke-linecap="round"/>
<path d="M193.046 105.352C210.588 94.0182 224.948 77.3838 240.536 63.5888C252.521 52.9818 264.334 42.1966 276.424 31.7147" stroke="black" stroke-width="7" stroke-linecap="round"/>
<path d="M275.683 34.5104C274.417 32.3301 273.124 31.1742 272.24 28.5819C270.944 24.7811 270.119 18.0019 271.727 14.1205C274.162 8.24626 280.752 5.70483 286.73 7.59956C291.191 9.01358 293.307 13.1035 294.758 17.1279" stroke="black" stroke-width="7" stroke-linecap="round"/>
<path d="M295.88 20.4181C292.556 19.3235 300.494 13.4355 301.698 12.4855C307.225 8.12486 313.001 4.90557 320.074 4.00574C331.362 2.56987 323.251 17.3389 319.73 20.7609" stroke="black" stroke-width="7" stroke-linecap="round"/>
<path d="M320.015 25.3253C323.361 23.3825 334.089 20.1223 334.331 27.6554C334.571 35.1252 326.72 38.5386 320.623 39.9505" stroke="black" stroke-width="7" stroke-linecap="round"/>
<path d="M316.001 44.2106C314.859 42.7096 315.704 46.456 315.794 46.8711C316.548 50.3232 318.38 53.4263 318.298 57.0671C318.127 64.6593 309.283 67.6656 303.544 64.8454" stroke="black" stroke-width="7" stroke-linecap="round"/>
</svg>

<svg width="338" height="249" viewBox="0 0 338 249" fill="none" xmlns="http://www.w3.org/2000/svg">
  <path d="M111.763 125.572c-.731 2.222-7.253-.471-8.754-.965-5.843-1.924-12.852-5.424-15.178-11.613-1.291-3.439-.916-8.922 3.766-8.895 4.295.024 8.808 2.497 12.6 4.255m2.19-1.812c-1.645 3.427-1.994-2.849-2.015-3.963-.055-2.86.713-6.158 2.034-8.67.788-1.497 2.27-3.849 4.282-3.611 1.48.174 2.764 2.18 3.553 3.25 1.779 2.414 3.698 5.235 4.647 8.107 2.577 7.795.534 15.386-3.136 22.412m29.484-35.759c1.294.299-1.117-.91-1.427-1.062-2.662-1.309-4.998-2.697-7.366-4.518-4.55-3.5-10.987-8.722-11.074-15.092-.079-5.811 6.926-3.893 10.16-2.327 3.304 1.6 6.041 3.606 8.749 5.996" stroke="#000" stroke-width="7" stroke-linecap="round"/>
  <path d="M143.223 69.486c-2.458-2.168-.536-7.747.585-10.184.373-.812 1.418-2.663 2.464-2.812 1.688-.241 2.975 1.039 3.742 2.36 1.256 2.164 1.604 4.867 2.083 7.285.585 2.946.795 6.088.789 9.087-.011 5.644-2.344 10.17-5.669 14.637m.68 43.286c5.564 3.741 12.602 5.797 18.168.495 5.389-5.133 3.93-10.441.622-16.138" stroke="#000" stroke-width="7" stroke-linecap="round"/>
  <path d="M46.598 86.615c-12.069 16.62-19.952 35.422-16.447 56.298 3.209 19.113 17.694 35.175 34.408 43.737 43.659 22.365 99.272-3.906 118.945-46.35 9.611-20.735 11.424-42.553 1.584-63.708-9.131-19.629-30.341-33.683-51.611-36.532-11.87-1.59-23.675-1.713-35.096 2.261-14.494 5.044-27.496 13.9-38.832 24.137-8.888 8.027-16.959 18.117-22.837 28.548-5.937 10.533-9.244 20.483-11.931 32.113" stroke="#000" stroke-width="7" stroke-linecap="round"/>
  <path d="M110.44 194.101c17.817-4.171 37.037-4.436 55.286-5.242 29.815-1.316 59.551-3.953 89.291-6.386m1.229.582c-2.88 8.521 3.025-19.062 9.573-25.227 3.459-3.256 5.542-3.578 7.376 1.281 1.988 5.269 3.772 10.786 4.917 16.308m.561 2.709c-1.536-3.616 19.118-9.248 22.604-1.042 4.297 10.116-10.578 13.618-17.089 14.025m-1.392 2.831c-1.951 1.133 4.646-.543 6.766.23 5.081 1.855 9.281 3.214 8.901 9.331-.62 9.999-13.546 13.918-21.499 10.01m.032 2.842c-1.163.885-.384 3.46-.479 4.705-.19 2.489-1.273 6.782-3.176 8.607-6.115 5.866-13.391 2.578-17.134-3.869m-63.161-120.444c17.542-11.334 31.902-27.968 47.49-41.763 11.985-10.607 23.798-21.392 35.888-31.874" stroke="#000" stroke-width="7" stroke-linecap="round"/>
  <path d="M275.683 34.51c-1.266-2.18-2.559-3.336-3.443-5.928-1.296-3.8-2.121-10.58-.513-14.461 2.435-5.875 9.025-8.416 15.003-6.521 4.461 1.414 6.577 5.504 8.028 9.528m1.122 3.29c-3.324-1.094 4.614-6.982 5.818-7.932 5.527-4.361 11.303-7.58 18.376-8.48 11.288-1.436 3.177 13.333-.344 16.755m.285 4.564c3.346-1.942 14.074-5.203 14.316 2.33.24 7.47-7.611 10.884-13.708 12.295m-4.622 4.26c-1.142-1.5-.297 2.246-.207 2.661.754 3.452 2.586 6.555 2.504 10.196-.171 7.592-9.015 10.599-14.754 7.778" stroke="#000" stroke-width="7" stroke-linecap="round"/>
</svg>
